X:1
T:Rule, Britannia!
T:British Patriotic Song
%%score ( 1 2 3 ) ( 4 5 ) 6
L:1/8
Q:1/4=72
M:4/4
K:G
V:1 treble nm="C Trumpet" snm="C Tpt."
V:2 treble 
V:3 treble 
V:4 bass nm="Trombone" snm="Trb."
V:5 bass 
V:6 bass nm="BaccidentalFlat Tuba" snm="BaccidentalFlat Tu."
V:1
"^Adagio" z z |: z2 z2 z4 | z8 | z8 | z4 z2 z D | G2 G2 G/A/B/c/ dG | A3 B/c/ B2 z D | %7
 G/A/G/A/ B/c/B/c/ dABA | GA/B/ AG F2 z D | FDAF d^c/B/ A/G/F/E/ | D2 E>D D2 z2 | G2 G>D EC z G | %12
 c>B AG F2 z A | d2 c2 B/G/c/A/ dc | B2 A2 G4 | B2 z B cc z B | c>B AG F4 | d2 c2 B/G/c/A/ dc | %18
 B2 A2 G4 | [G,DGB]2 z [G,DGB] [C,EGc][C,EGc] z [G,,D=FB] | %20
 [A,,CEc]>[B,,DGB] [C,CEA][^C,^A,EG] [D,=A,DF]4 | [DGd]2 [DFc]2 [G,,G][A,,F][B,,G][C,Ac] |1 %22
 [D,DGB]2 [D,CFA]2 [G,,B,G]3 z :|2 [D,DGB]2 [D,CFA]2 [G,,B,G]3 z || %24
[Q:1/4=68]"^Slow" [G,DGB]2 z [G,DGB] [C,EGc][C,EGc] z [G,,D=FB] | %25
 [A,,CEc]>[B,,DGB] [C,CEA][^C,^A,EG] [D,=A,DF]4 | [DGd]2 [DFc]2 [G,,G][A,,F][B,,G][C,Ac] | %27
 [D,DGB]2 [D,CFA]2 [G,,B,G]3 z | z8 | z8 | z8 | z8 | z8 | z8 |] %34
V:2
 x2 |: x8 | x8 | x8 | x8 | x8 | x8 | x8 | x8 | x8 | x8 | x8 | x8 | x8 | x8 | x8 | x8 | x8 | x8 | %19
 x8 | x8 | z2 z2 B/G/c/A/ d/ z/ z |1 x8 :|2 x8 || x8 | x8 | z2 z2 B/G/c/A/ d/ z/ z | x8 | x8 | x8 | %30
 x8 | x8 | x8 | x8 |] %34
V:3
 x2 |: x8 | x8 | x8 | x8 | x8 | x8 | x8 | x8 | x8 | x8 | x8 | x8 | x8 | x8 | x8 | x8 | x8 | x8 | %19
 x8 | x8 | B,,2 A,,2 D3 E |1 x8 :|2 x8 || x8 | x8 | B,,2 A,,2 D3 E | x8 | x8 | x8 | x8 | x8 | x8 | %33
 x8 |] %34
V:4
 z D, |: [B,,D,G,]2 [B,,D,G,]2 G,/A,/B,/C/ [G,D][D,G,] | A,3 B,/C/ [D,G,B,]3 D, | %3
 G,/A,/G,/A,/ B,/C/B,/C/ D/G/F/E/ D[E,A,C] | ([D,G,B,]2 [C,F,A,]2) [B,,G,]4 | %5
 .[B,,D,G,] z .[B,,D,G,] z .[B,,D,G,] z .[B,,D,G,].[D,G,] | (A,3 B,/)C/ [D,G,B,]3 z | %7
 .[B,,D,G,] z .[B,,D,G,] z .[B,,D,G,]([D,A,][D,B,])[D,A,] | [E,G,]2 A,G, [D,F,]2- [D,F,] z | %9
 .[A,,D,F,] z .[D,F,A,] z .[F,A,D] z z .[G,,B,,E,] | [F,,A,,D,]2 [G,,A,,^C,]2 [F,,A,,D,]2 z2 | %11
 [B,,D,G,]2 [B,,D,G,]>[G,,B,,D,] [G,,C,E,][G,,C,E,] z [D,G,] | CB,A,G, F,2 z [D,F,A,] | %13
 .[D,G,D] z .[D,F,C] z ([D,G,B,][D,F,C])[D,G,D][E,A,C] | ([D,G,B,]2 [C,F,A,]2) [B,,G,]4 | %15
 .[D,=F,G,B,]2 z .[D,F,G,B,] .[E,G,C].[E,G,C] z .[D,F,B,] | %16
 [C,E,C]>[D,G,B,] [C,E,A,][_B,,E,G,] [A,,D,F,]4 | %17
 .[D,G,D] z .[D,F,C] z ([D,G,B,][D,F,C])[D,G,D][E,A,C] | [D,G,B,]2 [C,F,A,]2 [B,,G,]4 | %19
 .[D,=F,G,B,]2 z .[D,F,G,B,] .[E,G,C].[E,G,C] z .[D,F,B,] | %20
 [C,E,C]>[D,G,B,] [C,E,A,][_B,,E,G,] [A,,D,F,]4 | %21
 .[D,G,D] z .[D,F,C] z ([D,G,B,][D,F,C])[D,G,D][E,A,C] |1 [D,G,B,]2 [C,F,A,]2 [B,,G,]3 D, :|2 %23
 [D,G,B,]2 [C,F,A,]2 [B,,G,]3 z || z8 | z8 | z8 | z8 | z8 | z8 | z8 | z8 | z8 | z8 |] %34
V:5
 x2 |: x8 | [E,G,]2 [D,F,]2 z4 | x8 | x8 | x8 | [E,G,]2 [D,F,]2 z4 | x8 | D,2 [^C,E,]2 z4 | x8 | %10
 x8 | x8 | E,/F,/G, D,^C, D,2 z [D,F,A,] | x8 | x8 | x8 | x8 | x8 | x8 | x8 | x8 | x8 |1 x8 :|2 %23
 x8 || x8 | x8 | x8 | x8 | x8 | x8 | x8 | x8 | x8 | x8 |] %34
V:6
 z2 |: [G,,D,G,]2 [G,,D,G,]2 [G,B,]2- [G,B,]B,, | C,A,,D,D,, G,,D,,G,,, z | %3
 .[G,,B,,D,G,] z .[G,,B,,D,G,] z .[G,,B,,D,G,] z .[G,,B,,D,G,].[C,,C,] | %4
 ([D,,D,]2 [D,,D,]2) [G,,,G,,]2 z2 | .[G,,D,G,] z .[G,,D,G,] z .[G,,D,G,] z .[G,,D,G,].B,, | %6
 (C,A,,)D,D,, (G,,D,,)G,,, z | .[G,,D,G,] z .[G,,D,G,] z .[G,,D,G,]([F,,F,][G,,G,])[F,,F,] | %8
 [E,,E,]2 [A,,,A,,]2 [D,,D,]A,,.D,, z | .[D,,D,] z .[D,,D,] z .[D,,D,] z z .[G,,,G,,] | %10
 [A,,,A,,]2 [A,,,A,,]2 ([D,,D,][E,,E,])[F,,F,][D,,D,] | %11
 ([G,,G,][A,,A,])[B,,B,][G,,G,] [C,,C,][C,,C,] z [B,,B,] | %12
 [A,,A,][G,,G,][F,,F,][E,,E,] [D,,D,][E,,E,][D,,D,][C,,C,] | %13
 .[B,,,B,,] z .[A,,,A,,] z ([G,,,G,,][A,,,A,,])[B,,,B,,][C,,C,] | %14
 ([D,,D,]2 [D,,D,]2) [G,,,G,,].[B,,,B,,].[D,,D,].[G,,G,] | %15
 .[G,,G,]2 z .[G,,G,] .[C,,C,].[C,,C,] z .[G,,,G,,] | %16
 [A,,,A,,]>[B,,,B,,] [C,,C,][^C,,^C,] [D,,D,]/[C,,C,]/[D,,D,]/[E,,E,]/ [D,,D,]/[=C,,=C,]/[B,,,B,,]/[A,,,A,,]/ | %17
 .[B,,,B,,] z .[A,,,A,,] z ([G,,,G,,][A,,,A,,])[B,,,B,,][C,,C,] | ([D,,D,]2 [D,,D,]2) [G,,,G,,]4 | %19
 .[G,,G,]2 z .[G,,G,] .[C,,C,].[C,,C,] z .[G,,,G,,] | %20
 [A,,,A,,]>[B,,,B,,] [C,,C,][^C,,^C,] [D,,D,]/[C,,C,]/[D,,D,]/[E,,E,]/ [D,,D,]/[=C,,=C,]/[B,,,B,,]/[A,,,A,,]/ | %21
 .[B,,,B,,] z .[A,,,A,,] z ([G,,,G,,][A,,,A,,])[B,,,B,,][C,,C,] |1 %22
 ([D,,D,]2 [D,,D,]2) [G,,,G,,]3 z :|2 ([D,,D,]2 [D,,D,]2) [G,,,G,,]3 z || %24
!mp! .[G,,G,]2 z .[G,,G,] .[C,,C,].[C,,C,] z .[G,,,G,,] | %25
 [A,,,A,,]>[B,,,B,,] [C,,C,][^C,,^C,] [D,,D,]/C,/D,/E,/ D,/=C,/B,,/A,,/ | %26
 .[B,,,B,,] z .[A,,,A,,] z ([G,,,G,,][A,,,A,,])[B,,,B,,][C,,C,] | ([D,,D,]2 [D,,D,]2) [G,,,G,,]4 | %28
 z8 | z8 | z8 | z8 | z8 | z8 |] %34

